wp-content/themes/julialandauer/images/home.svg

<svg width="30px" height="27px" viewBox="0 0 17 14" version="1.1" xmlns="http://www.w3.org/2000/svg" xmlns:xlink="http://www.w3.org/1999/xlink" >
    <path d="M16.5925926,8.2962963 L13.4814815,5.18518519 L13.4814815,0.518518519 L11.4074074,0.518518519 L11.4074074,3.11111111 L8.2962963,0 L0,8.2962963 L0,8.81481481 L2.07407407,8.81481481 L2.07407407,14 L7.25925926,14 L7.25925926,10.8888889 L9.33333333,10.8888889 L9.33333333,14 L14.5185185,14 L14.5185185,8.81481481 L16.5925926,8.81481481 L16.5925926,8.2962963 Z" fill="#0060BC"></path>
</svg>

<svg width="30" height="27" viewBox="0 0 17 14" xmlns="http://www.w3.org/2000/svg"><path d="M16.593 8.296l-3.112-3.11V.518h-2.073v2.59L8.297 0 0 8.296v.52h2.074V14H7.26v-3.11h2.073V14h5.186V8.815h2.073v-.52z" fill="#0060BC"/></svg>
